src/lib/packages/icons/src/assets/filled/activity-star-circle.svg

<svg width="24" height="24" viewBox="0 0 24 24" fill="none" xmlns="http://www.w3.org/2000/svg">
<path d="M11.5 2C6.25 2 2 6.25 2 11.5C2 16.75 6.25 21 11.5 21C12.56 21 13.59 20.82 14.54 20.5C14.57 20.49 14.59 20.49 14.61 20.47C14.78 20.39 14.84 20.16 14.69 20L14.08 19.4199C13.56 18.9199 13.37 18.18 13.59 17.49C13.81 16.79 14.4 16.3 15.12 16.2L16.29 16.03L16.79 15.05C17.11 14.4 17.77 14 18.5 14C19.09 14 19.64 14.26 19.99 14.71C20.04 14.76 20.12 14.8 20.2 14.8C20.33 14.8 20.43 14.7201 20.48 14.6101C20.82 13.6401 21 12.59 21 11.5C21 6.25 16.75 2 11.5 2ZM16.53 10.23L14.016 12.7439C13.373 13.3859 12.328 13.3871 11.683 12.7451L10.253 11.318C10.193 11.259 10.099 11.26 10.04 11.318L7.52901 13.8291C7.38301 13.9751 7.19099 14.0491 6.99899 14.0491C6.80699 14.0491 6.61499 13.9761 6.46899 13.8291C6.17599 13.5361 6.17599 13.0611 6.46899 12.7681L8.98 10.257C9.624 9.61396 10.67 9.61398 11.313 10.256L12.743 11.683C12.802 11.741 12.896 11.741 12.956 11.683L15.47 9.16895C15.763 8.87595 16.238 8.87595 16.531 9.16895C16.824 9.46195 16.823 9.93798 16.53 10.23ZM20.62 19.54C20.53 19.62 20.49 19.7499 20.51 19.8799L20.8 21.52C20.84 21.79 20.63 22 20.39 22C20.32 22 20.26 21.99 20.19 21.95L18.68 21.1699C18.62 21.1499 18.56 21.1299 18.5 21.1299C18.44 21.1299 18.38 21.1499 18.32 21.1699L16.81 21.95C16.74 21.98 16.68 22 16.61 22C16.37 22 16.16 21.78 16.2 21.52L16.49 19.8799C16.51 19.7499 16.47 19.62 16.38 19.54L15.12 18.3301C14.89 18.1101 15.01 17.7299 15.33 17.6799L17.08 17.4299C17.2 17.4199 17.31 17.34 17.37 17.23L18.13 15.73C18.2 15.58 18.35 15.5 18.5 15.5C18.65 15.5 18.8 15.58 18.87 15.73L19.63 17.23C19.69 17.34 19.8 17.4199 19.92 17.4299L21.67 17.6799C21.99 17.7299 22.11 18.1101 21.88 18.3301L20.62 19.54Z" fill="currentColor"/>
</svg>

<svg xmlns="http://www.w3.org/2000/svg" width="24" height="24" fill="none"><path fill="currentColor" d="M11.5 2C6.25 2 2 6.25 2 11.5a9.496 9.496 0 0 0 12.54 9c.03-.01.05-.01.07-.03.17-.08.23-.31.08-.47l-.61-.58c-.52-.5-.71-1.24-.49-1.93.22-.7.81-1.19 1.53-1.29l1.17-.17.5-.98c.32-.65.98-1.05 1.71-1.05.59 0 1.14.26 1.49.71.05.05.13.09.21.09.13 0 .23-.08.28-.19.34-.97.52-2.02.52-3.11C21 6.25 16.75 2 11.5 2Zm5.03 8.23-2.514 2.514a1.654 1.654 0 0 1-2.333.001l-1.43-1.427a.151.151 0 0 0-.213 0l-2.511 2.511a.748.748 0 0 1-1.06 0 .75.75 0 0 1 0-1.06l2.511-2.512a1.653 1.653 0 0 1 2.333-.001l1.43 1.427a.152.152 0 0 0 .213 0l2.514-2.514a.75.75 0 1 1 1.06 1.061Zm4.09 9.31c-.09.08-.13.21-.11.34l.29 1.64c.04.27-.17.48-.41.48-.07 0-.13-.01-.2-.05l-1.51-.78a.584.584 0 0 0-.18-.04c-.06 0-.12.02-.18.04l-1.51.78c-.07.03-.13.05-.2.05a.42.42 0 0 1-.41-.48l.29-1.64a.377.377 0 0 0-.11-.34l-1.26-1.21c-.23-.22-.11-.6.21-.65l1.75-.25c.12-.01.23-.09.29-.2l.76-1.5c.07-.15.22-.23.37-.23s.3.08.37.23l.76 1.5c.06.11.17.19.29.2l1.75.25c.32.05.44.43.21.65l-1.26 1.21Z"/></svg>
